X:458
T:L'Abat dels Boigs
Z:Jack Campin, http://www.campin.me.uk/
F:Jack Campin's Nine-Note Tunebook
% last edit 03-02-2013
G:for the sac des gemecs (Catalan bagpipe)
M:3/4
L:1/8
Q:1/4=136
K:C
E>F|G2 G2 E>F|G2 G2 A>G|F>E F>G A>A|G2 E2
E>F|G2 G2 E>F|G2 G2 A>G|F>E F>G A>G|E4 :|
E>G|c4    B>A|G4    A>G|F>E F>G A>G|G2 E2
E>G|c4    B>A|G4    A>G|F>E F>G A>G|E4 :|

